resources/svg/sort-up.svg

<svg width="15" height="15" viewBox="0 0 15 15" fill="none" xmlns="http://www.w3.org/2000/svg">
<path fill-rule="evenodd" clip-rule="evenodd" d="M3.14645 0.146447C3.34172 -0.0488155 3.6583 -0.0488155 3.85356 0.146447L6.85356 3.14645L6.14645 3.85355L4.00001 1.70711V15H3.00001V1.70711L0.853561 3.85355L0.146454 3.14645L3.14645 0.146447ZM15 4H9.00001V3H15V4ZM13 8H9.00001V7H13V8ZM11 12H9.00001V11H11V12Z" fill="black"/>
</svg>

<svg viewBox="0 0 15 15" fill="none" xmlns="http://www.w3.org/2000/svg" fill="currentColor"><path fill-rule="evenodd" clip-rule="evenodd" d="M3.146.146a.5.5 0 01.708 0l3 3-.708.708L4 1.707V15H3V1.707L.854 3.854l-.708-.708 3-3zM15 4H9V3h6v1zm-2 4H9V7h4v1zm-2 4H9v-1h2v1z" fill="currentColor"/></svg>
